X:1
T:Title
%%score { ( 1 3 6 ) | ( 2 4 5 ) }
L:1/8
Q:1/4=100
M:4/4
K:Eb
V:1 treble nm="Grand Piano"
V:3 treble 
V:6 treble 
V:2 bass 
V:4 bass 
V:5 bass 
V:1
 [GB]>[Ac] [GB]>[EG] [GB]>[Ac] [GB]>G | F>G F>E z2 (3EDC | D>_D =D>E F2 [DB]2 | %3
w: haldor~Lillenas * * * * * * *|||
 E>D E>[DF] [EG]2 [GB]2 | [GB]>[Ac] [GB]>[EG] [GB]>[Ac] [GB]>G | F>G F>E z2 (3EDC | %6
w: |||
 [F,B,D]>[=E,B,_D] [F,B,=D]>[K:treble][CDA] [B,EG]2 [A,DF]2 |[M:7/8] [G,E]-[G,E]-[G,E]- [G,E]3 z | %8
w: ||
[M:1/8] B |[M:4/4] z2 z d z2 z c | z4 A2 .A2 | z2 z _d z2 z B | z4 G2 z/ .A3/2 | z2 z d z2 z d | %14
w: ||||||
 f>c c>c c2 e2 | B>=A B>c G2 [DF]2 | E6 z2 |] %17
w: |||
V:2
 [E,E]>[E,E] [E,B,]>[E,B,] [E,E]>[E,E] [E,B,]>[E,B,E] | %1
 [F,=A,E]>[F,A,E] [F,A,C]>[F,A,C] (3:2:2z2 E, z2 | %2
 [B,,F,B,]>[B,,=E,B,] [B,,F,B,]>[B,,G,B,] [B,,A,B,]2 [B,,F,]2 | %3
 [E,G,B,]>[E,F,B,] [E,G,B,]>[B,,B,] [E,B,]2 [E,E]2 | %4
 [E,E]>[E,E] [E,B,]>[E,B,] [E,E]>[E,E] [E,B,]>[E,B,E] | %5
 [F,=A,E]>[F,A,E] [F,A,C]>[F,A,C] (3:2:2z2 E, z2 | B,,>B,, B,,>B,, B,,2 B,,2 | %7
[M:7/8] E,-E,-E,- E,3 z |[M:1/8] B, |[M:4/4] [E,B,]2 z G [E,B,]2 z[K:treble] G | %10
 [F,B,]>[B,DF] [B,DF]>[B,DF] (3.F2 z2 .G2[K:bass] | [F,B,]2 z A [F,B,]2 z A | %12
 [E,B,]>[E,B,E] [E,B,E]>[E,B,E] .E2 z B, | [E,B,]2 z G [E,B,]2 z[K:treble] G | %14
 [A,A]>[A,EA] [A,EA]>[A,EA] [A,EA]2 [=A,C_G]2 | %15
 [B,EG]>[B,E_G] [B,E=G]>[B,DA][K:bass] [B,E]2 [B,,A,]2 | [E,G,]6 z2 |] %17
V:3
 x8 | z4 (3C=B,C- C2 | x8 | x8 | x8 | z4 (3CB,C- C2 | x7/2[K:treble] x9/2 |[M:7/8] x7 |[M:1/8] x | %9
[M:4/4] [Gf]4 [Ge]4 | [Ad]>A A>A (3z F-[F-G] F[DFA] | [Ad]4 [A=d]4 | [Gc]>G G>G (3z E-[E-F] EB | %13
 [Ge]4 [Ge]4 | x8 | x8 | x8 |] %17
V:4
 x8 | z4 [F,=A,]4 | x8 | x8 | x8 | z4 [F,=A,]4 | x8 |[M:7/8] z z/ C,<B,,G,,/ E,,2 z |[M:1/8] x | %9
[M:4/4] z2 B,,2 z2 B,,2[K:treble] | z4 [B,D]3[K:bass] B,, | z2 B,,2 z2 D,2 | z4 [E,B,]4 | %13
 z2 B,,2 z2 B,,2[K:treble] | x8 | x4[K:bass] x4 | x8 |] %17
V:5
 x8 | z4 z2 D,>C, | x8 | x8 | x8 | z4 z2 D,>C, | x8 |[M:7/8] x7 |[M:1/8] x | %9
[M:4/4] x7[K:treble] x | x7[K:bass] x | x8 | x8 | x7[K:treble] x | x8 | x4[K:bass] x4 | x8 |] %17
V:6
 x8 | x8 | x8 | x8 | x8 | x8 | x7/2[K:treble] x9/2 |[M:7/8] x7 |[M:1/8] x |[M:4/4] z2 B,2 z2 B,2 | %10
 x8 | z2 B,2 z2 B,2 | z4 z2 .G2 | z2 B,2 z2 B,2 | x8 | x8 | x8 |] %17

